X:1
T:La Cantatrice
T:La Cantatrice
T:Mazurka To Miss. Pattie Snead, Louisville, Ky., by an Amateur 
T:Anonymous
T:Public Domain - https://imslp.org/wiki/La_Cantatrice_Mazurka_(Anonymous)
T:Public Domain - https://imslp.org/wiki/La_Cantatrice_Mazurka_(Anonymous)
T:Public Domain - https://imslp.org/wiki/La_Cantatrice_Mazurka_(Anonymous)
C:Anonymous
Z:Public Domain - https://imslp.org/wiki/La_Cantatrice_Mazurka_(Anonymous)
%%score { 1 | 2 }
L:1/8
M:3/4
K:Ab
V:1 treble nm="Piano" snm="Pno."
V:2 bass 
V:1
 e>e |{/g} (f>e c3) d |{cd} (c>B F3) _F | (EG) (Bd) (cB) | (A>c E3) e |{/g} (f>e c3) d | %6
w: ||||||
{cd} (c>B F3) ^F | (GB) (gf) (dG) | A2 z2 e>e |{/g} (f>e c3) d |{cd} (c>B F3) _F | (EG) (Bd) (cB) | %12
w: ||||||
 (A>c E3) e |{/g} (f>e c3) d |{cd} (c>B F3) A | (GB) (gf) (dG) | A2 z2 c>c{c} |] (a>g f3) c | %18
w: ||||||
{de} (d>c B3) =B | (c>B G3) B |{AB} (A>G F3) c{c} | (a>g f3) c |{de} (d>c B3) G | (c>B G3) A | %24
w: ||||||
!f! F>=E !fermata!_E (B!p!cd) |!mf!{/g} (f>e c3) d |{cd} (c>B F3) _F | (EG) (Bd) (cB) | %28
w: ||||
 (A>a e) (cd=d) |{/g} (f>e c3) d |{cd} (c>B F3) A | (GB) (df) (eG) | A2 z2 A>A |] %33
w: |||||
[K:Db]!p! !arpeggio![FA]3 (Bcd) | !arpeggio![GBf]3 (edB) |{Bc} B>E B3 A | %36
w: |||
!pp! !arpeggio![Gd]3 ([Gc][GB][GA]) |!p! !arpeggio![FA]3 (Bcd) | !arpeggio!!^![GBf]3 (edB) | %39
w: |||
 !invertedturn!A2 (ba) ([Ge]f) | [FAd]2 z FG=G | !arpeggio![FA]3 (Bcd) | %42
w: |* a tempo. * *||
 !arpeggio!!^![GBf]3 (edB) |{Bc} B>E B3 A |!pp! !arpeggio![Gd]3 [Gc][GB][GA] | %45
w: |||
!p! !arpeggio![FA]3 (def) |!f! g>d g3 f |{fg} (f!p!e) (=de) (b>a) | d2 z (cd=d) |] %49
w: ||||
[K:Ab]{/g} (f>e!mf! c3) d |{cd} (c>B F3) _F | (EG) (Bd) (cB) | (A>c E3) e |{/g} (f>e c3) d | %54
w: |||||
{cd} (c>B F3) A |!p! (AG) (gf) (dG) | A>c f3 e | g>f e4 | %58
w: ||||
!f! [ebd'e']>[ebd'e'] [ebd'e']2 [ebd'e']2 | [eac'e']>c' a4 |!p! A>c f3 e | g>f e4 | %62
w: ||||
!f! [ebd'e']>[ebd'e'] [ebd'e']2 [ebd'e']2 | [eac'e']>c' a4 | A>e a3 a!p! |"_cresc." a2 d4 | %66
w: ||||
 B>f b3 b | b2 e4 | e>b e'3 e' | e'2 a'4 | (g'f'e'd'c'b) | a2 z2 z2 |!ff! [GBde]2 [GBde]2 [GBde]2 | %73
w: |||||||
 [Acea]2 z2 z2 | [ceac']2 z4 | !fermata!A,4 z2 |] %76
w: |||
V:2
 z2 | [A,,,A,,]2 [E,A,C]2 [E,A,C]2 | [D,,D,]2 [D,F,B,]2 [D,F,B,]2 | %3
 [E,,E,]2 [E,G,B,D]2 [E,G,B,D]2 | [A,,,A,,]2 [E,A,C]2 [E,A,C]2 | [A,,,A,,]2 [E,A,C]2 [E,A,C]2 | %6
 [D,,D,]2 [D,F,B,]2 [D,F,B,]2 | [E,,E,]2 [E,G,B,D]2 [E,G,B,D]2 | [E,A,C]2 [A,,,A,,]2 z2 | %9
 [A,,,A,,]2 [E,A,C]2 [E,A,C]2 | [D,,D,]2 [D,F,B,]2 [D,F,B,]2 | [E,,E,]2 [E,G,B,D]2 [E,G,B,D]2 | %12
 [A,,,A,,]2 [E,A,C]2 [E,A,C]2 | [A,,,A,,]2 [E,A,C]2 [E,A,C]2 | [B,,,B,,]2 [D,F,A,B,]2 [D,F,A,B,]2 | %15
 [E,,E,]2 [E,G,B,D]2 [E,G,B,D]2 | [E,A,C]2 [A,,,A,,]2 z2 |] [F,,,A,,]2 [E,A,C]2 [E,A,C]2 | %18
 [B,,,B,,]2 [G,B,DF]2 [G,B,DF]2 | [C,,B,,]2 [G,B,D=E]2 [G,B,DE]2 | [F,,F,]2 [F,A,C]2 [F,A,C]2 | %21
 [F,,,F,,]2 [F,A,C]2 [F,A,C]2 | [G,,,G,,]2 [G,B,DF]2 [G,B,DF]2 | [C,,C,]2 [G,B,D=E]2 [G,B,DE]2 | %24
 [F,,F,]>[=E,,=E,] !fermata![_E,,_E,]2 [E,G,D]2 | [A,,,A,,]2 [E,A,C]2 [E,A,C]2 | %26
 [D,,D,]2 [D,F,B,]2 [D,F,B,]2 | [E,,E,]2 [E,G,B,D]2 [E,G,B,D]2 | [A,,,A,,]2 [E,A,C]2 [E,A,C]2 | %29
 [A,,,A,,]2 [E,A,C]2 [E,A,C]2 | [D,,D,]2 [D,F,B,]2 [D,F,B,]2 | [E,,E,]2 [E,G,B,D]2 [E,G,B,D]2 | %32
 [E,A,C]2 [A,,,A,,]2 z2 |][K:Db] [D,,D,]2 [A,DF]2 [A,DF]2 | [G,,,G,,]2 [G,B,E]2 [G,B,E]2 | %35
 [A,,,A,,]2 [A,CEG]2 [A,CEG]2 | [A,,,A,,]2 [A,CE]2 [A,CE]2 | [D,,D,]2 [A,DF]2 [A,DF]2 | %38
 [G,,,G,,]2 [G,B,E]2 [G,B,E]2 |"^ritard." [A,,,A,,]2 [A,CEG]2 [A,CE]2 | [D,D]2 z2 z2 | %41
 [D,,D,]2 [A,DF]2 [A,DF]2 | [G,,,G,,]2 [G,B,E]2 [G,B,E]2 | [A,,,A,,]2 [A,CEG]2 [A,CEG]2 | %44
 [G,,,G,,]2 [A,CE]2 [A,CE]2 | [D,,D,]2 [A,_CDF]2 [A,CDF]2 | [__B,,__B,]2 [B,DG]2 [B,DG]2 | %47
 [A,,A,]2 [A,CG]2 [A,CG]2 | [DF]2 [D,,D,]2 z2 |][K:Ab] [A,,,A,,]2 [E,A,C]2 [E,A,C]2 | %50
 [D,,D,]2 [D,F,B,]2 [D,F,B,]2 | [E,,E,]2 [E,G,B,D]2 [E,G,B,D]2 | [A,,,A,,]2 [E,A,C]2 [E,A,C]2 | %53
 [A,,,A,,]2 [E,A,C]2 [E,A,C]2 | [D,,D,]2 [D,F,B,]2 [D,F,B,]2 | [E,,E,]2 [E,G,B,D]2 [E,G,B,D]2 | %56
 [A,,A,]2 [A,CE]2 [A,CE]2 | [B,,B,]2 [B,DEG]2 [B,DEG]2 | [E,,E,]2 [G,,G,]2 [E,,E,]2 | %59
 [A,,A,]2 [CEA]2 [CEA]2 | [A,,A,]2 [A,CE]2 [A,CE]2 | [B,,B,]2 [B,DEG]2 [B,DEG]2 | %62
 [E,,E,]2 [G,,G,]2 [E,,E,]2 | [A,,A,]2 [CEA]2 [CEA]2 | [A,,A,]2 [A,C_G]2 [A,CG]2 | %65
 [D,,D,]2 [A,DF]2 [A,DF]2 | [B,,,B,,]2 [B,=DA]2 [B,DA]2 | [E,,E,]2 [B,EG]2 [B,EG]2 | %68
 [D,D]2[K:treble] [DEGB]2 [DEGB]2 |[K:bass] [C,C]2[K:treble] [CEA]2 [CEA]2 | %70
 [cc']2[K:treble] [EGBd]2 [EGBd]2 | [Ac]2 z2 z2 | [Cc]2 [Ee]2 [Cc]2 | [Ff]2 z2 z2 | [Ff]2 z2 z2 | %75
 !fermata![F,F]4 z2 |] %76

